X: 4
M: 3/4
L: 1/8
K: D
V: 1
|:\
|:\
(3(fed) c2B2 | e2 dcBA | (3(dcB) A2 T^G2 | A>BAGFE |\
V: 2 clef=bass middle=d
|:\
"D"d4 d2 | "A"c2 "A7"A2 "D"d2 | "D"fg a2 "A"A2 | "D"d2 f2 d2 |\
"G"g2 b2 g2 | "D"f2 d2 "G"g2 | "A"c2 "D"d2 "G"G2 | "D"A2 "A"c2 A2 |\
z2 z2 AB | "A"c2 "E"B2 "A"A2 | "D"d2 "A"e2 "E"E2 | "A"A6 :|
|:\
"D"f4 d2 | "A7"e2 c2 A2 | "D"d3 efg | "D"f2 "A7"e2 "D"d2 |\
z2 z2 d2 | "A"c2 z2 c2 | "Bm"d2 "A"e2 "E7"E2 | "A"A4 z2 |\
"D"d4 d'2 | "A"c'2 a2 "D"f2 | "G"g2 "D"a2 "A"A2 | "D"D6 :|

